;FLAVOR:Marlin
;TIME:3435
;Filament used: 2.64367m
;Layer height: 0.3
;MINX:82.2
;MINY:78.336
;MINZ:0.3
;MAXX:138.664
;MAXY:135.664
;MAXZ:9
;Generated with Cura_SteamEngine 4.8.0
M140 S60
M105
M190 S60
M104 S190
M105
M109 S190
M82 ;absolute extrusion mode
; Ender 3 Custom Start G-code
G92 E0 ; Reset Extruder
G28 ; Home all axes
G1 Z2.0 F3000 ; Move Z Axis up little to prevent scratching of Heat Bed
G1 X0.1 Y20 Z0.3 F5000.0 ; Move to start position
G1 X0.1 Y200.0 Z0.3 F1500.0 E15 ; Draw the first line
G1 X0.4 Y200.0 Z0.3 F5000.0 ; Move to side a little
G1 X0.4 Y20 Z0.3 F1500.0 E30 ; Draw the second line
G92 E0 ; Reset Extruder
G1 Z2.0 F3000 ; Move Z Axis up little to prevent scratching of Heat Bed
G1 X5 Y20 Z0.3 F5000.0 ; Move over to prevent blob squish
G92 E0
G92 E0
G1 F3000 E-6
;LAYER_COUNT:30
;LAYER:0
M107
;MESH:keycap.stl(4)
G0 F6000 X115.519 Y96.358 Z0.3
;TYPE:WALL-INNER
G1 F3000 E0
G1 F1200 X114.979 Y96.4 E0.02702
G1 X105.021 Y96.4 E0.52383
G1 X104.468 Y96.357 E0.5515
G1 X103.953 Y96.233 E0.57793
G1 X103.459 Y96.028 E0.60461
G1 X103 Y95.747 E0.63146
G1 X102.598 Y95.402 E0.65789
G1 X102.253 Y95 E0.68432
G1 X101.972 Y94.54 E0.71121
G1 X101.769 Y94.05 E0.73767
G1 X101.642 Y93.518 E0.76496
G1 X101.6 Y92.982 E0.79179
G1 X101.6 Y83.018 E1.28889
G1 X101.643 Y82.468 E1.31641
G1 X101.767 Y81.953 E1.34284
G1 X101.972 Y81.459 E1.36953
G1 X102.253 Y81 E1.39638
G1 X102.598 Y80.598 E1.4228
G1 X103 Y80.253 E1.44923
G1 X103.459 Y79.972 E1.47608
G1 X103.95 Y79.769 E1.50259
G1 X104.481 Y79.642 E1.52983
G1 X105.021 Y79.6 E1.55685
G1 X114.979 Y79.6 E2.05366
G1 X115.532 Y79.644 E2.08134
G1 X116.049 Y79.768 E2.10786
G1 X116.552 Y79.977 E2.13503
G1 X116.996 Y80.249 E2.16101
G1 X117.408 Y80.605 E2.18818
G1 X117.747 Y81 E2.21415
G1 X118.031 Y81.466 E2.24137
G1 X118.231 Y81.951 E2.26755
G1 X118.358 Y82.481 E2.29474
G1 X118.4 Y83.018 E2.32161
G1 X118.4 Y92.982 E2.81872
G1 X118.357 Y93.532 E2.84624
G1 X118.232 Y94.049 E2.87277
G1 X118.023 Y94.552 E2.89995
G1 X117.751 Y94.996 E2.92593
G1 X117.395 Y95.408 E2.95309
G1 X117 Y95.747 E2.97906
G1 X116.534 Y96.031 E3.00629
G1 X116.049 Y96.231 E3.03246
G1 X115.519 Y96.358 E3.05965
G0 F6000 X115.58 Y96.755
;TYPE:WALL-OUTER
G1 F1200 X114.997 Y96.8 E3.08882
G1 X105.003 Y96.8 E3.58743
G1 X104.405 Y96.753 E3.61735
G1 X103.828 Y96.614 E3.64696
G1 X103.279 Y96.387 E3.6766
G1 X102.764 Y96.071 E3.70675
G1 X102.314 Y95.686 E3.73629
G1 X101.929 Y95.236 E3.76584
G1 X101.613 Y94.72 E3.79603
G1 X101.388 Y94.176 E3.8254
G1 X101.245 Y93.579 E3.85602
G1 X101.2 Y93 E3.885
G1 X101.2 Y83 E4.3839
G1 X101.247 Y82.405 E4.41368
G1 X101.386 Y81.828 E4.44329
G1 X101.613 Y81.279 E4.47292
G1 X101.929 Y80.764 E4.50307
G1 X102.314 Y80.314 E4.53261
G1 X102.764 Y79.929 E4.56216
G1 X103.279 Y79.613 E4.59231
G1 X103.824 Y79.388 E4.62172
G1 X104.42 Y79.245 E4.6523
G1 X105.003 Y79.2 E4.68147
G1 X114.997 Y79.2 E5.18008
G1 X115.595 Y79.247 E5.21
G1 X116.169 Y79.385 E5.23945
G1 X116.737 Y79.621 E5.27014
G1 X117.232 Y79.925 E5.29912
G1 X117.693 Y80.322 E5.32947
G1 X118.073 Y80.766 E5.35863
G1 X118.389 Y81.285 E5.38895
G1 X118.612 Y81.824 E5.41805
G1 X118.755 Y82.42 E5.44863
G1 X118.8 Y83 E5.47765
G1 X118.8 Y93 E5.97655
G1 X118.753 Y93.595 E6.00633
G1 X118.615 Y94.169 E6.03578
G1 X118.379 Y94.737 E6.06647
G1 X118.075 Y95.232 E6.09545
G1 X117.678 Y95.693 E6.1258
G1 X117.234 Y96.073 E6.15496
G1 X116.715 Y96.389 E6.18527
G1 X116.176 Y96.612 E6.21437
G1 X115.58 Y96.755 E6.24495
G0 F6000 X115.512 Y96.321
G0 X115.455 Y95.972
;TYPE:SKIN
G1 F1200 X114.974 Y96.01 E6.26902
G1 X105.026 Y96.01 E6.76533
G1 X104.532 Y95.971 E6.79005
G1 X104.076 Y95.862 E6.81344
G1 X103.637 Y95.679 E6.83717
G1 X103.23 Y95.431 E6.86095
G1 X102.875 Y95.125 E6.88433
G1 X102.569 Y94.77 E6.90772
G1 X102.321 Y94.362 E6.93154
G1 X102.142 Y93.932 E6.95477
G1 X102.027 Y93.449 E6.97954
G1 X101.99 Y92.982 E7.00292
G1 X101.99 Y83.018 E7.50002
G1 X102.028 Y82.532 E7.52434
G1 X102.139 Y82.074 E7.54785
G1 X102.321 Y81.637 E7.57147
G1 X102.569 Y81.23 E7.59525
G1 X102.875 Y80.875 E7.61863
G1 X103.23 Y80.569 E7.64201
G1 X103.634 Y80.322 E7.66564
G1 X104.069 Y80.142 E7.68913
G1 X104.551 Y80.027 E7.71385
G1 X105.026 Y79.99 E7.73762
G1 X114.973 Y79.99 E8.23388
G1 X115.468 Y80.03 E8.25865
G1 X115.926 Y80.139 E8.28214
G1 X116.374 Y80.326 E8.30636
G1 X116.766 Y80.565 E8.32926
G1 X117.13 Y80.881 E8.35331
G1 X117.43 Y81.23 E8.37627
G1 X117.68 Y81.64 E8.40023
G1 X117.86 Y82.076 E8.42376
G1 X117.972 Y82.542 E8.44767
G1 X118.01 Y83.018 E8.4715
G1 X118.01 Y92.982 E8.9686
G1 X117.972 Y93.466 E8.99283
G1 X117.86 Y93.928 E9.01654
G1 X117.674 Y94.374 E9.04065
G1 X117.435 Y94.766 E9.06356
G1 X117.119 Y95.13 E9.0876
G1 X116.77 Y95.43 E9.11056
G1 X116.36 Y95.68 E9.13452
G1 X115.924 Y95.86 E9.15806
G1 X115.455 Y95.972 E9.18211
G0 F6000 X102.27 Y93.785
G1 F1200 X104.216 Y95.73 E9.31938
G0 F6000 X104.89 Y95.839
G1 F1200 X102.158 Y93.107 E9.51213
G0 F6000 X102.149 Y92.532
G1 F1200 X105.466 Y95.849 E9.74617
G0 F6000 X106.032 Y95.849
G1 F1200 X102.149 Y91.967 E10.0201
G0 F6000 X102.149 Y91.401
G1 F1200 X106.597 Y95.849 E10.33393
G0 F6000 X107.163 Y95.849
G1 F1200 X102.149 Y90.835 E10.68769
G0 F6000 X102.149 Y90.269
G1 F1200 X107.729 Y95.849 E11.08139
G0 F6000 X108.294 Y95.849
G1 F1200 X102.149 Y89.704 E11.51496
G0 F6000 X102.149 Y89.138
G1 F1200 X108.86 Y95.849 E11.98845
G0 F6000 X109.426 Y95.849
G1 F1200 X102.149 Y88.572 E12.50188
G0 F6000 X102.149 Y88.007
G1 F1200 X109.991 Y95.849 E13.05518
G0 F6000 X110.557 Y95.849
G1 F1200 X102.149 Y87.441 E13.64841
G0 F6000 X102.149 Y86.875
G1 F1200 X111.123 Y95.849 E14.28157
G0 F6000 X111.688 Y95.849
G1 F1200 X102.149 Y86.31 E14.9546
G0 F6000 X102.149 Y85.744
G1 F1200 X112.254 Y95.849 E15.66756
G0 F6000 X112.82 Y95.849
G1 F1200 X102.149 Y85.178 E16.42046
G0 F6000 X102.149 Y84.613
G1 F1200 X113.385 Y95.849 E17.21322
G0 F6000 X113.951 Y95.849
G1 F1200 X102.149 Y84.047 E18.04592
G0 F6000 X102.149 Y83.481
G1 F1200 X114.517 Y95.849 E18.91855
G0 F6000 X115.074 Y95.841
G1 F1200 X102.156 Y82.923 E19.82998
G0 F6000 X102.217 Y82.418
G1 F1200 X115.576 Y95.777 E20.77253
G0 F6000 X116.013 Y95.648
G1 F1200 X102.348 Y81.984 E21.73663
G0 F6000 X102.529 Y81.599
G1 F1200 X116.398 Y95.467 E22.71513
G0 F6000 X116.739 Y95.243
G1 F1200 X102.754 Y81.258 E23.70185
G0 F6000 X103.022 Y80.96
G1 F1200 X117.038 Y94.977 E24.69079
G0 F6000 X117.302 Y94.675
G1 F1200 X103.325 Y80.697 E25.67698
G0 F6000 X103.676 Y80.483
G1 F1200 X117.516 Y94.323 E26.65346
G0 F6000 X117.686 Y93.927
G1 F1200 X104.073 Y80.314 E27.61393
G0 F6000 X104.522 Y80.197
G1 F1200 X117.803 Y93.479 E28.55102
G0 F6000 X117.849 Y92.959
G1 F1200 X105.04 Y80.149 E29.4548
G0 F6000 X105.605 Y80.149
G1 F1200 X117.849 Y92.393 E30.31868
G0 F6000 X117.849 Y91.827
G1 F1200 X106.171 Y80.149 E31.14262
G0 F6000 X106.737 Y80.149
G1 F1200 X117.849 Y91.262 E31.92667
G0 F6000 X117.849 Y90.696
G1 F1200 X107.302 Y80.149 E32.67082
G0 F6000 X107.868 Y80.149
G1 F1200 X117.849 Y90.13 E33.37503
G0 F6000 X117.849 Y89.564
G1 F1200 X108.434 Y80.149 E34.03931
G0 F6000 X108.999 Y80.149
G1 F1200 X117.849 Y88.999 E34.66372
G0 F6000 X117.849 Y88.433
G1 F1200 X109.565 Y80.149 E35.24821
G0 F6000 X110.131 Y80.149
G1 F1200 X117.849 Y87.867 E35.79275
G0 F6000 X117.849 Y87.302
G1 F1200 X110.696 Y80.149 E36.29743
G0 F6000 X111.262 Y80.149
G1 F1200 X117.849 Y86.736 E36.76218
G0 F6000 X117.849 Y86.17
G1 F1200 X111.828 Y80.149 E37.187
G0 F6000 X112.393 Y80.149
G1 F1200 X117.849 Y85.605 E37.57195
G0 F6000 X117.849 Y85.039
G1 F1200 X112.959 Y80.149 E37.91696
G0 F6000 X113.525 Y80.149
G1 F1200 X117.849 Y84.473 E38.22204
G0 F6000 X117.849 Y83.908
G1 F1200 X114.09 Y80.149 E38.48726
G0 F6000 X114.656 Y80.149
G1 F1200 X117.849 Y83.342 E38.71255
G0 F6000 X117.828 Y82.756
G1 F1200 X115.244 Y80.171 E38.8949
G0 F6000 X115.969 Y80.331
G1 F1200 X117.665 Y82.027 E39.01456
G1 F3000 E33.01456
;MESH:keycap.stl
G0 F6000 X115.516 Y96.339
G0 X115.529 Y98.663
G0 X115.504 Y115.26
G0 X115.519 Y115.358
;TYPE:WALL-INNER
G1 F3000 E39.01456
G1 F1200 X114.979 Y115.4 E39.04158
G1 X105.021 Y115.4 E39.53839
G1 X104.468 Y115.357 E39.56606
G1 X103.953 Y115.233 E39.59249
G1 X103.459 Y115.028 E39.61917
G1 X103 Y114.747 E39.64602
G1 X102.598 Y114.402 E39.67245
G1 X102.253 Y114 E39.69888
G1 X101.972 Y113.54 E39.72577
G1 X101.769 Y113.05 E39.75223
G1 X101.642 Y112.518 E39.77952
G1 X101.6 Y111.982 E39.80634
G1 X101.6 Y102.018 E40.30345
G1 X101.643 Y101.468 E40.33097
G1 X101.767 Y100.953 E40.3574
G1 X101.972 Y100.459 E40.38408
G1 X102.253 Y100 E40.41093
G1 X102.598 Y99.598 E40.43736
G1 X103 Y99.253 E40.46379
G1 X103.459 Y98.972 E40.49064
G1 X103.95 Y98.769 E40.51715
G1 X104.481 Y98.642 E40.54439
G1 X105.021 Y98.6 E40.57141
G1 X114.979 Y98.6 E41.06822
G1 X115.532 Y98.644 E41.09589
G1 X116.049 Y98.768 E41.12242
G1 X116.552 Y98.977 E41.14959
G1 X116.996 Y99.249 E41.17557
G1 X117.408 Y99.605 E41.20274
G1 X117.747 Y100 E41.2287
G1 X118.031 Y100.466 E41.25593
G1 X118.231 Y100.951 E41.2821
G1 X118.358 Y101.481 E41.30929
G1 X118.4 Y102.018 E41.33617
G1 X118.4 Y111.982 E41.83327
G1 X118.357 Y112.532 E41.8608
G1 X118.232 Y113.049 E41.88733
G1 X118.023 Y113.552 E41.91451
G1 X117.751 Y113.996 E41.94049
G1 X117.395 Y114.408 E41.96765
G1 X117 Y114.747 E41.99362
G1 X116.534 Y115.031 E42.02085
G1 X116.049 Y115.231 E42.04702
G1 X115.519 Y115.358 E42.07421
G0 F6000 X115.58 Y115.755
;TYPE:WALL-OUTER
G1 F1200 X114.997 Y115.8 E42.10338
G1 X105.003 Y115.8 E42.60198
G1 X104.405 Y115.753 E42.63191
G1 X103.828 Y115.614 E42.66152
G1 X103.279 Y115.387 E42.69116
G1 X102.764 Y115.071 E42.7213
G1 X102.314 Y114.686 E42.75085
G1 X101.929 Y114.236 E42.7804
G1 X101.613 Y113.72 E42.81058
G1 X101.388 Y113.176 E42.83995
G1 X101.245 Y112.579 E42.87058
G1 X101.2 Y112 E42.89955
G1 X101.2 Y102 E43.39846
G1 X101.247 Y101.405 E43.42823
G1 X101.386 Y100.828 E43.45784
G1 X101.613 Y100.279 E43.48748
G1 X101.929 Y99.764 E43.51763
G1 X102.314 Y99.314 E43.54717
G1 X102.764 Y98.929 E43.57672
G1 X103.279 Y98.613 E43.60686
G1 X103.824 Y98.388 E43.63628
G1 X104.42 Y98.245 E43.66686
G1 X105.003 Y98.2 E43.69603
G1 X114.997 Y98.2 E44.19463
G1 X115.595 Y98.247 E44.22456
G1 X116.169 Y98.385 E44.25401
G1 X116.737 Y98.621 E44.2847
G1 X117.232 Y98.925 E44.31368
G1 X117.693 Y99.322 E44.34403
G1 X118.073 Y99.766 E44.37319
G1 X118.389 Y100.285 E44.4035
G1 X118.612 Y100.824 E44.43261
G1 X118.755 Y101.42 E44.46318
G1 X118.8 Y102 E44.49221
G1 X118.8 Y112 E44.99111
G1 X118.753 Y112.595 E45.02089
G1 X118.615 Y113.169 E45.05034
G1 X118.379 Y113.737 E45.08103
G1 X118.075 Y114.232 E45.11001
G1 X117.678 Y114.693 E45.14036
G1 X117.234 Y115.073 E45.16952
G1 X116.715 Y115.389 E45.19983
G1 X116.176 Y115.612 E45.22893
G1 X115.58 Y115.755 E45.25951
G0 F6000 X115.512 Y115.321
G0 X115.455 Y114.972
;TYPE:SKIN
G1 F1200 X114.974 Y115.01 E45.28358
G1 X105.026 Y115.01 E45.77989
G1 X104.532 Y114.971 E45.80461
G1 X104.076 Y114.862 E45.828
G1 X103.637 Y114.679 E45.85173
G1 X103.23 Y114.431 E45.87551
G1 X102.875 Y114.125 E45.89889
G1 X102.569 Y113.77 E45.92227
G1 X102.321 Y113.362 E45.9461
G1 X102.142 Y112.932 E45.96933
G1 X102.027 Y112.449 E45.9941
G1 X101.99 Y111.982 E46.01747
G1 X101.99 Y102.018 E46.51458
G1 X102.028 Y101.532 E46.5389
G1 X102.139 Y101.074 E46.56241
G1 X102.321 Y100.637 E46.58603
G1 X102.569 Y100.23 E46.60981
G1 X102.875 Y99.875 E46.63319
G1 X103.23 Y99.569 E46.65657
G1 X103.634 Y99.322 E46.6802
G1 X104.069 Y99.142 E46.70368
G1 X104.551 Y99.027 E46.72841
G1 X105.026 Y98.99 E46.75218
G1 X114.973 Y98.99 E47.24843
G1 X115.468 Y99.03 E47.27321
G1 X115.926 Y99.139 E47.2967
G1 X116.374 Y99.326 E47.32092
G1 X116.766 Y99.565 E47.34382
G1 X117.13 Y99.881 E47.36787
G1 X117.43 Y100.23 E47.39083
G1 X117.68 Y100.64 E47.41479
G1 X117.86 Y101.076 E47.43832
G1 X117.972 Y101.542 E47.46223
G1 X118.01 Y102.018 E47.48606
G1 X118.01 Y111.982 E47.98316
G1 X117.972 Y112.466 E48.00738
G1 X117.86 Y112.928 E48.0311
G1 X117.674 Y113.374 E48.05521
G1 X117.435 Y113.766 E48.07811
G1 X117.119 Y114.13 E48.10216
G1 X116.77 Y114.43 E48.12512
G1 X116.36 Y114.68 E48.14908
G1 X115.924 Y114.86 E48.17261
G1 X115.455 Y114.972 E48.19667
G0 F6000 X103.841 Y114.589
G1 F1200 X102.409 Y113.157 E48.29771
G0 F6000 X102.179 Y112.361
G1 F1200 X104.636 Y114.819 E48.4711
G0 F6000 X105.232 Y114.848
G1 F1200 X102.149 Y111.766 E48.68858
G0 F6000 X102.149 Y111.2
G1 F1200 X105.798 Y114.848 E48.946
G0 F6000 X106.363 Y114.848
G1 F1200 X102.149 Y110.634 E49.24332
G0 F6000 X102.149 Y110.068
G1 F1200 X106.929 Y114.848 E49.58058
G0 F6000 X107.495 Y114.848
G1 F1200 X102.149 Y109.503 E49.95773
G0 F6000 X102.149 Y108.937
G1 F1200 X108.06 Y114.848 E50.37479
G0 F6000 X108.626 Y114.848
G1 F1200 X102.149 Y108.371 E50.83177
G0 F6000 X102.149 Y107.806
G1 F1200 X109.192 Y114.848 E51.32866
G0 F6000 X109.757 Y114.848
G1 F1200 X102.149 Y107.24 E51.86545
G0 F6000 X102.149 Y106.674
G1 F1200 X110.324 Y114.849 E52.44224
G0 F6000 X110.889 Y114.849
G1 F1200 X102.149 Y106.109 E53.05889
G0 F6000 X102.149 Y105.543
G1 F1200 X111.455 Y114.849 E53.71548
G0 F6000 X112.021 Y114.849
G1 F1200 X102.149 Y104.977 E54.412
G0 F6000 X102.149 Y104.412
G1 F1200 X112.586 Y114.849 E55.14839
G0 F6000 X113.152 Y114.849
G1 F1200 X102.149 Y103.846 E55.92471
G0 F6000 X102.149 Y103.28
G1 F1200 X113.718 Y114.849 E56.74096
G0 F6000 X114.284 Y114.849
G1 F1200 X102.149 Y102.715 E57.59712
G0 F6000 X102.149 Y102.149
G1 F1200 X114.849 Y114.849 E58.49317
G0 F6000 X115.383 Y114.817
G1 F1200 X102.18 Y101.614 E59.42472
G0 F6000 X102.282 Y101.151
G1 F1200 X115.844 Y114.713 E60.38159
G0 F6000 X116.249 Y114.552
G1 F1200 X102.446 Y100.749 E61.35546
G0 F6000 X102.655 Y100.392
G1 F1200 X116.604 Y114.341 E62.33964
G0 F6000 X116.917 Y114.089
G1 F1200 X102.908 Y100.08 E63.32805
G0 F6000 X103.2 Y99.806
G1 F1200 X117.193 Y113.799 E64.31533
G0 F6000 X117.428 Y113.468
G1 F1200 X103.531 Y99.571 E65.29584
G0 F6000 X103.907 Y99.382
G1 F1200 X117.617 Y113.091 E66.26312
G0 F6000 X117.758 Y112.667
G1 F1200 X104.335 Y99.243 E67.21022
G0 F6000 X104.822 Y99.165
G1 F1200 X117.834 Y112.177 E68.12829
G0 F6000 X117.849 Y111.626
G1 F1200 X105.372 Y99.149 E69.00861
G0 F6000 X105.938 Y99.149
G1 F1200 X117.849 Y111.061 E69.84903
G0 F6000 X117.849 Y110.495
G1 F1200 X106.503 Y99.149 E70.64955
G0 F6000 X107.069 Y99.149
G1 F1200 X117.849 Y109.929 E71.41014
G0 F6000 X117.849 Y109.363
G1 F1200 X107.635 Y99.149 E72.13079
G0 F6000 X108.2 Y99.149
G1 F1200 X117.849 Y108.798 E72.81158
G0 F6000 X117.849 Y108.232
G1 F1200 X108.766 Y99.149 E73.45243
G0 F6000 X109.332 Y99.149
G1 F1200 X117.849 Y107.666 E74.05335
G0 F6000 X117.849 Y107.101
G1 F1200 X109.897 Y99.149 E74.61441
G0 F6000 X110.463 Y99.149
G1 F1200 X117.849 Y106.535 E75.13553
G0 F6000 X117.849 Y105.969
G1 F1200 X111.029 Y99.149 E75.61672
G0 F6000 X111.594 Y99.149
G1 F1200 X117.849 Y105.404 E76.05805
G0 F6000 X117.849 Y104.838
G1 F1200 X112.16 Y99.149 E76.45944
G0 F6000 X112.726 Y99.149
G1 F1200 X117.849 Y104.272 E76.82089
G0 F6000 X117.849 Y103.707
G1 F1200 X113.291 Y99.149 E77.14248
G0 F6000 X113.857 Y99.149
G1 F1200 X117.849 Y103.141 E77.42414
G0 F6000 X117.849 Y102.575
G1 F1200 X114.423 Y99.149 E77.66586
G0 F6000 X114.991 Y99.151
G1 F1200 X117.849 Y102.01 E77.86754
G0 F6000 X117.762 Y101.358
G1 F1200 X115.64 Y99.236 E78.01726
G0 F6000 X116.657 Y99.687
G1 F1200 X117.304 Y100.334 E78.06291
G1 F3000 E72.06291
;MESH:keycap.stl(1)
G0 F6000 X115.516 Y115.339
G0 X115.529 Y117.663
G0 X115.504 Y134.26
G0 X115.519 Y134.358
;TYPE:WALL-INNER
G1 F3000 E78.06291
G1 F1200 X114.979 Y134.4 E78.08993
G1 X105.021 Y134.4 E78.58674
G1 X104.468 Y134.357 E78.61441
G1 X103.953 Y134.233 E78.64084
G1 X103.459 Y134.028 E78.66753
G1 X103 Y133.747 E78.69438
G1 X102.598 Y133.402 E78.7208
G1 X102.253 Y133 E78.74723
G1 X101.972 Y132.54 E78.77413
G1 X101.769 Y132.05 E78.80059
G1 X101.642 Y131.518 E78.82787
G1 X101.6 Y130.982 E78.8547
G1 X101.6 Y121.018 E79.3518
G1 X101.643 Y120.468 E79.37933
G1 X101.767 Y119.953 E79.40575
G1 X101.972 Y119.459 E79.43244
G1 X102.253 Y119 E79.45929
G1 X102.598 Y118.598 E79.48572
G1 X103 Y118.253 E79.51215
G1 X103.459 Y117.972 E79.539
G1 X103.95 Y117.769 E79.5655
G1 X104.481 Y117.642 E79.59274
G1 X105.021 Y117.6 E79.61976
G1 X114.979 Y117.6 E80.11657
