;FLAVOR:Marlin
;TIME:1839
;Filament used: 0.523441m
;Layer height: 0.1
;MINX:101.2
;MINY:101.2
;MINZ:0.1
;MAXX:118.8
;MAXY:118.8
;MAXZ:9
;Generated with Cura_SteamEngine 4.8.0
M140 S60
M105
M190 S60
M104 S190
M105
M109 S190
M82 ;absolute extrusion mode
; Ender 3 Custom Start G-code
G92 E0 ; Reset Extruder
G28 ; Home all axes
G1 Z2.0 F3000 ; Move Z Axis up little to prevent scratching of Heat Bed
G1 X0.1 Y20 Z0.3 F5000.0 ; Move to start position
G1 X0.1 Y200.0 Z0.3 F1500.0 E15 ; Draw the first line
G1 X0.4 Y200.0 Z0.3 F5000.0 ; Move to side a little
G1 X0.4 Y20 Z0.3 F1500.0 E30 ; Draw the second line
G92 E0 ; Reset Extruder
G1 Z2.0 F3000 ; Move Z Axis up little to prevent scratching of Heat Bed
G1 X5 Y20 Z0.3 F5000.0 ; Move over to prevent blob squish
G92 E0
G92 E0
G1 F3000 E-6
;LAYER_COUNT:90
;LAYER:0
M107
;MESH:keycaps-Cut.stl
G0 F6000 X110.435 Y117.8 Z0.1
;TYPE:WALL-INNER
G1 F3000 E0
G1 F1200 X110.579 Y117.79 E0.0024
G1 X111.414 Y117.683 E0.0164
G1 X111.557 Y117.654 E0.01883
G1 X112.371 Y117.444 E0.03281
G1 X112.508 Y117.397 E0.03522
G1 X113.288 Y117.087 E0.04917
G1 X113.419 Y117.022 E0.05161
G1 X114.143 Y116.623 E0.06535
G1 X114.222 Y116.575 E0.06689
G1 X114.945 Y116.049 E0.08176
G1 X115.017 Y115.991 E0.0833
G1 X115.67 Y115.376 E0.09821
G1 X115.733 Y115.309 E0.09974
G1 X116.303 Y114.617 E0.11465
G1 X116.356 Y114.542 E0.11618
G1 X116.835 Y113.787 E0.13105
G1 X116.877 Y113.706 E0.13257
G1 X117.258 Y112.897 E0.14744
G1 X117.289 Y112.81 E0.14897
G1 X117.564 Y111.96 E0.16383
G1 X117.584 Y111.872 E0.16533
G1 X117.75 Y110.995 E0.18018
G1 X117.76 Y110.904 E0.1817
G1 X117.813 Y110.013 E0.19654
G1 X117.812 Y109.922 E0.19805
G1 X117.753 Y109.027 E0.21297
G1 X117.739 Y108.938 E0.21447
G1 X117.569 Y108.057 E0.22939
G1 X117.543 Y107.97 E0.2309
G1 X117.261 Y107.113 E0.2459
G1 X116.873 Y106.289 E0.26105
G1 X116.803 Y106.161 E0.26348
G1 X116.312 Y105.393 E0.27864
G1 X115.728 Y104.689 E0.29385
G1 X115.629 Y104.585 E0.29624
G1 X115.014 Y104.009 E0.31025
G1 X114.9 Y103.918 E0.31267
G1 X114.231 Y103.434 E0.32641
G1 X114.155 Y103.383 E0.32793
G1 X113.425 Y102.983 E0.34177
G1 X113.296 Y102.915 E0.3442
G1 X112.455 Y102.583 E0.35923
G1 X112.368 Y102.554 E0.36076
G1 X111.502 Y102.333 E0.37562
G1 X111.412 Y102.315 E0.37715
G1 X110.523 Y102.205 E0.39204
G1 X110.433 Y102.199 E0.39354
G1 X109.534 Y102.2 E0.40849
G1 X109.444 Y102.207 E0.41
G1 X108.558 Y102.321 E0.42485
G1 X108.468 Y102.339 E0.42638
G1 X107.602 Y102.564 E0.44126
G1 X107.515 Y102.594 E0.44279
G1 X106.674 Y102.928 E0.45784
G1 X105.878 Y103.364 E0.47293
G1 X105.753 Y103.442 E0.47538
G1 X105.015 Y103.983 E0.4906
G1 X104.351 Y104.605 E0.50573
G1 X104.251 Y104.712 E0.50816
G1 X103.671 Y105.417 E0.52334
G1 X103.182 Y106.187 E0.53851
G1 X103.113 Y106.315 E0.54093
G1 X102.728 Y107.141 E0.55609
G1 X102.445 Y108.012 E0.57132
G1 X102.411 Y108.153 E0.57373
G1 X102.254 Y108.98 E0.58773
G1 X102.239 Y109.125 E0.59015
G1 X102.188 Y109.949 E0.60388
G1 X102.187 Y110.04 E0.6054
G1 X102.242 Y110.936 E0.62032
G1 X102.254 Y111.027 E0.62185
G1 X102.423 Y111.904 E0.6367
G1 X102.445 Y111.991 E0.6382
G1 X102.724 Y112.849 E0.6532
G1 X102.76 Y112.933 E0.65472
G1 X103.14 Y113.743 E0.6696
G1 X103.187 Y113.823 E0.67114
G1 X103.664 Y114.573 E0.68592
G1 X103.719 Y114.646 E0.68744
G1 X104.291 Y115.335 E0.70233
G1 X104.354 Y115.4 E0.70384
G1 X105.008 Y116.011 E0.71872
G1 X105.08 Y116.067 E0.72024
G1 X105.803 Y116.591 E0.73509
G1 X105.882 Y116.638 E0.73662
G1 X106.675 Y117.072 E0.75165
G1 X107.519 Y117.407 E0.76675
G1 X107.657 Y117.453 E0.76917
G1 X108.544 Y117.678 E0.78439
G1 X109.449 Y117.793 E0.79956
G1 X109.596 Y117.801 E0.80201
G1 X110.435 Y117.8 E0.81596
G0 F6000 X110.421 Y117.4
;TYPE:WALL-OUTER
G1 F1200 X110.54 Y117.392 E0.81795
G1 X111.349 Y117.288 E0.83151
G1 X111.467 Y117.264 E0.83351
G1 X112.256 Y117.061 E0.84706
G1 X112.369 Y117.022 E0.84905
G1 X113.125 Y116.721 E0.86258
G1 X113.234 Y116.667 E0.8646
G1 X113.942 Y116.277 E0.87805
G1 X113.999 Y116.242 E0.87916
G1 X114.702 Y115.731 E0.89361
G1 X114.754 Y115.689 E0.89472
G1 X115.387 Y115.093 E0.90918
G1 X115.432 Y115.045 E0.91028
G1 X115.985 Y114.374 E0.92474
G1 X116.023 Y114.32 E0.92584
G1 X116.488 Y113.587 E0.94027
G1 X116.519 Y113.528 E0.94138
G1 X116.888 Y112.743 E0.9558
G1 X116.911 Y112.68 E0.95692
G1 X117.178 Y111.853 E0.97137
G1 X117.193 Y111.789 E0.97246
G1 X117.354 Y110.937 E0.98688
G1 X117.361 Y110.871 E0.98799
G1 X117.413 Y110.004 E1.00243
G1 X117.412 Y109.938 E1.00353
G1 X117.355 Y109.071 E1.01798
G1 X117.345 Y109.006 E1.01907
G1 X117.18 Y108.153 E1.03352
G1 X117.161 Y108.09 E1.03462
G1 X116.889 Y107.261 E1.04913
G1 X116.517 Y106.471 E1.06365
G1 X116.459 Y106.366 E1.06564
G1 X115.988 Y105.629 E1.08019
G1 X115.429 Y104.955 E1.09475
G1 X115.347 Y104.869 E1.09673
G1 X114.752 Y104.312 E1.11028
G1 X114.658 Y104.237 E1.11228
G1 X114.002 Y103.762 E1.12575
G1 X113.947 Y103.725 E1.12685
G1 X113.235 Y103.335 E1.14035
G1 X113.129 Y103.279 E1.14234
G1 X112.318 Y102.959 E1.15684
G1 X112.255 Y102.938 E1.15795
G1 X111.413 Y102.723 E1.1724
G1 X111.348 Y102.71 E1.1735
G1 X110.486 Y102.603 E1.18795
G1 X110.421 Y102.599 E1.18903
G1 X109.55 Y102.6 E1.20351
G1 X109.485 Y102.605 E1.2046
G1 X108.623 Y102.716 E1.21905
G1 X108.558 Y102.729 E1.22015
G1 X107.718 Y102.947 E1.23459
G1 X107.655 Y102.969 E1.2357
G1 X106.845 Y103.291 E1.25019
G1 X106.08 Y103.71 E1.2647
G1 X105.977 Y103.774 E1.26671
G1 X105.271 Y104.291 E1.28127
G1 X104.634 Y104.888 E1.29578
G1 X104.551 Y104.976 E1.2978
G1 X103.996 Y105.652 E1.31234
G1 X103.527 Y106.39 E1.32688
G1 X103.47 Y106.495 E1.32887
G1 X103.101 Y107.288 E1.34342
G1 X102.83 Y108.121 E1.35798
G1 X102.802 Y108.237 E1.35997
G1 X102.65 Y109.037 E1.37351
G1 X102.638 Y109.157 E1.37552
G1 X102.588 Y109.964 E1.38896
G1 X102.587 Y110.031 E1.39008
G1 X102.641 Y110.899 E1.40454
G1 X102.649 Y110.965 E1.40564
G1 X102.814 Y111.817 E1.42008
G1 X102.83 Y111.881 E1.42117
G1 X103.099 Y112.709 E1.43565
G1 X103.125 Y112.77 E1.43675
G1 X103.494 Y113.556 E1.45119
G1 X103.528 Y113.614 E1.45231
G1 X103.993 Y114.345 E1.46672
G1 X104.033 Y114.398 E1.46782
G1 X104.588 Y115.067 E1.48228
G1 X104.634 Y115.114 E1.48337
G1 X105.269 Y115.707 E1.49782
G1 X105.321 Y115.748 E1.49892
G1 X106.023 Y116.257 E1.51334
G1 X106.08 Y116.291 E1.51445
G1 X106.845 Y116.709 E1.52895
G1 X107.657 Y117.031 E1.54347
G1 X107.77 Y117.069 E1.54545
G1 X108.619 Y117.284 E1.56002
G1 X109.486 Y117.394 E1.57455
G1 X109.607 Y117.401 E1.57657
G1 X110.421 Y117.4 E1.59011
G0 F6000 X110.436 Y117.839
G0 X110.438 Y117.899
G0 X112.382 Y117.482
G0 X113.437 Y117.057
G0 X114.244 Y116.608
G0 X115.043 Y116.021
G0 X115.763 Y115.335
G0 X116.389 Y114.564
G0 X116.912 Y113.723
G0 X117.326 Y112.822
G0 X117.623 Y111.88
G0 X117.765 Y111.093
G0 X118 Y108.18
;TYPE:WALL-INNER
G1 F1200 X117.953 Y107.97 E1.59368
G1 X117.925 Y107.85 E1.59573
G1 X117.633 Y106.965 E1.61123
G1 X117.603 Y106.901 E1.61241
G1 X117.23 Y106.108 E1.62698
G1 X117.147 Y105.957 E1.62985
G1 X116.636 Y105.157 E1.64563
G1 X116.027 Y104.423 E1.66149
G1 X115.911 Y104.301 E1.66429
G1 X115.276 Y103.706 E1.67876
G1 X115.142 Y103.599 E1.68162
G1 X114.46 Y103.106 E1.69561
G1 X114.363 Y103.041 E1.69755
G1 X113.614 Y102.631 E1.71175
G1 X113.463 Y102.551 E1.71459
G1 X113.061 Y102.392 E1.72178
G1 X112.592 Y102.207 E1.73017
G1 X112.481 Y102.17 E1.73211
G1 X111.814 Y102 E1.74356
G1 X112.481 Y102 E1.74586
G1 X112.592 Y102 E1.74672
G1 X113.096 Y102 E1.75312
G1 X116.935 Y102 E1.81696
G1 X117.228 Y102.032 E1.82186
G1 X117.621 Y102.224 E1.82914
G1 X117.892 Y102.563 E1.83635
G1 X117.969 Y102.785 E1.84026
G1 X118 Y103.052 E1.84473
G1 X118 Y106.894 E1.90862
G1 X118 Y106.965 E1.90976
G1 X118 Y107.85 E1.91783
G1 X118 Y108.18 E1.91953
G0 F6000 X116.344 Y105.37
G0 X115.657 Y104.557
G0 X114.924 Y103.887
G0 X114.175 Y103.349
G0 X113.312 Y102.879
G0 X112.379 Y102.516
G0 X111.418 Y102.276
G0 X110.434 Y102.16
G0 X109.44 Y102.168
G0 X108.46 Y102.301
G0 X107.502 Y102.557
G0 X106.657 Y102.892
G0 X105.731 Y103.409
G0 X104.99 Y103.953
G0 X104.221 Y104.686
G0 X103.639 Y105.394
G0 X102 Y108.174
G1 F1200 X102 Y107.903 E1.92404
G1 X102 Y106.994 E1.93915
G1 X102 Y106.895 E1.9408
G1 X102 Y103.052 E2.00471
G1 X102.031 Y102.783 E2.00921
G1 X102.223 Y102.379 E2.01665
G1 X102.567 Y102.106 E2.02395
G1 X102.78 Y102.032 E2.0277
G1 X103.066 Y102 E2.03249
G1 X106.905 Y102 E2.09633
G1 X107.376 Y102 E2.10417
G1 X107.486 Y102 E2.10599
G1 X108.182 Y102 E2.11757
G1 X107.486 Y102.181 E2.12051
G1 X107.376 Y102.219 E2.12151
G1 X106.939 Y102.392 E2.12759
G1 X106.503 Y102.565 E2.13539
G1 X105.676 Y103.019 E2.15108
G1 X105.529 Y103.111 E2.15397
G1 X104.759 Y103.675 E2.16984
G1 X104.068 Y104.322 E2.18558
G1 X103.95 Y104.448 E2.18845
G1 X103.347 Y105.182 E2.20425
G1 X102.837 Y105.985 E2.22007
G1 X102.755 Y106.135 E2.22291
G1 X102.396 Y106.905 E2.23704
G1 X102.355 Y106.994 E2.23858
G1 X102.06 Y107.903 E2.24712
G1 X102.024 Y108.067
G1 X102 Y108.174
G0 F6000 X102.215 Y111.033
G0 X102.407 Y112.002
G0 X102.724 Y112.949
G0 X103.153 Y113.843
G0 X103.688 Y114.67
G0 X104.326 Y115.428
G0 X105.056 Y116.098
G0 X105.513 Y116.422
G0 X108.186 Y118
G1 F1200 X107.544 Y118 E2.2578
G1 X107.382 Y118 E2.26049
G1 X106.906 Y118 E2.26841
G1 X103.052 Y118 E2.3325
G1 X102.783 Y117.969 E2.337
G1 X102.379 Y117.777 E2.34444
G1 X102.106 Y117.433 E2.35175
G1 X102.032 Y117.22 E2.3555
G1 X102 Y116.934 E2.36028
G1 X102 Y113.105 E2.42396
G1 X102 Y113.097 E2.42409
G1 X102 Y112.99 E2.42587
G1 X102 Y112.102 E2.44064
G1 X102 Y111.825 E2.44525
G1 X102.035 Y111.987
G1 X102.06 Y112.102
G1 X102.349 Y112.99 E2.45348
G1 X102.395 Y113.097 E2.45529
G1 X102.398 Y113.104 E2.45542
G1 X102.786 Y113.93 E2.47059
G1 X102.846 Y114.032 E2.47256
G1 X103.335 Y114.801 E2.48772
G1 X103.405 Y114.894 E2.48965
G1 X103.993 Y115.602 E2.50496
G1 X104.074 Y115.686 E2.5069
G1 X104.748 Y116.316 E2.52224
G1 X104.84 Y116.387 E2.52417
G1 X105.583 Y116.926 E2.53944
G1 X105.684 Y116.985 E2.54138
G1 X106.505 Y117.435 E2.55695
G1 X106.94 Y117.608 E2.56474
G1 X107.382 Y117.783 E2.57087
G1 X107.544 Y117.837 E2.57228
G1 X108.186 Y118 E2.57472
G0 F6000 X117.224 Y117.968
G1 F1200 X116.935 Y118 E2.57956
G1 X113.094 Y118 E2.64344
G1 X112.647 Y118 E2.65087
G1 X112.486 Y118 E2.65355
G1 X111.817 Y118 E2.66467
G1 X112.486 Y117.827 E2.66738
G1 X112.647 Y117.772 E2.66886
G1 X113.062 Y117.607 E2.67472
G1 X113.451 Y117.453 E2.68168
G1 X113.605 Y117.376 E2.68454
G1 X114.343 Y116.969 E2.69856
G1 X114.444 Y116.908 E2.70052
G1 X115.188 Y116.367 E2.71582
G1 X115.28 Y116.293 E2.71778
G1 X115.953 Y115.659 E2.73316
G1 X116.033 Y115.573 E2.73511
G1 X116.621 Y114.86 E2.75048
G1 X116.688 Y114.765 E2.75241
G1 X117.182 Y113.987 E2.76774
G1 X117.236 Y113.883 E2.76969
G1 X117.603 Y113.104 E2.78401
G1 X117.628 Y113.05 E2.785
G1 X117.668 Y112.939 E2.78696
G1 X117.95 Y112.066 E2.80222
G1 X117.973 Y111.954 E2.80412
G1 X118 Y111.827 E2.80628
G1 X118 Y112.066 E2.80765
G1 X118 Y112.939 E2.8145
G1 X118 Y113.05 E2.81613
G1 X118 Y113.11 E2.81709
G1 X118 Y116.935 E2.8807
G1 X117.968 Y117.228 E2.8856
G1 X117.776 Y117.621 E2.89288
G1 X117.432 Y117.895 E2.90019
G1 X117.224 Y117.968 E2.90386
G0 F6000 X117.313 Y118.361
G1 F1200 X116.961 Y118.4 E2.90975
G1 X103.032 Y118.4 E3.14139
G1 X102.69 Y118.36 E3.14711
G1 X102.389 Y118.255 E3.15242
G1 X102.129 Y118.092 E3.15752
G1 X101.908 Y117.87 E3.16273
G1 X101.743 Y117.607 E3.16789
G1 X101.639 Y117.309 E3.17314
G1 X101.6 Y116.961 E3.17896
G1 X101.6 Y103.032 E3.4106
G1 X101.64 Y102.69 E3.41633
G1 X101.745 Y102.389 E3.42163
G1 X101.908 Y102.129 E3.42673
G1 X102.13 Y101.908 E3.43194
G1 X102.393 Y101.743 E3.43711
G1 X102.691 Y101.639 E3.44236
G1 X103.039 Y101.6 E3.44818
G1 X116.961 Y101.6 E3.6797
G1 X117.313 Y101.639 E3.68559
G1 X117.604 Y101.741 E3.69072
G1 X117.875 Y101.912 E3.69605
G1 X118.092 Y102.129 E3.70115
G1 X118.256 Y102.391 E3.70629
G1 X118.361 Y102.692 E3.7116
G1 X118.4 Y103.032 E3.71729
G1 X118.4 Y116.961 E3.94893
G1 X118.361 Y117.313 E3.95482
G1 X118.259 Y117.604 E3.95994
G1 X118.088 Y117.875 E3.96527
G1 X117.871 Y118.092 E3.97038
G1 X117.607 Y118.258 E3.97556
G1 X117.313 Y118.361 E3.98074
G0 F6000 X117.4 Y118.754
;TYPE:WALL-OUTER
G1 F1200 X116.987 Y118.8 E3.98765
G1 X103.012 Y118.8 E4.22006
G1 X102.597 Y118.752 E4.22701
G1 X102.214 Y118.618 E4.23375
G1 X101.881 Y118.409 E4.24029
G1 X101.591 Y118.118 E4.24713
G1 X101.38 Y117.782 E4.25372
G1 X101.246 Y117.398 E4.26049
G1 X101.2 Y116.987 E4.26736
G1 X101.2 Y103.012 E4.49977
G1 X101.248 Y102.597 E4.50672
G1 X101.382 Y102.214 E4.51346
G1 X101.591 Y101.881 E4.52
G1 X101.882 Y101.591 E4.52684
G1 X102.218 Y101.38 E4.53343
G1 X102.602 Y101.246 E4.5402
G1 X103.013 Y101.2 E4.54707
G1 X116.987 Y101.2 E4.77946
G1 X117.4 Y101.246 E4.78637
G1 X117.781 Y101.38 E4.79309
G1 X118.126 Y101.597 E4.79987
G1 X118.407 Y101.878 E4.80648
G1 X118.619 Y102.216 E4.81311
G1 X118.753 Y102.599 E4.81986
G1 X118.8 Y103.013 E4.82679
G1 X118.8 Y116.987 E5.05918
G1 X118.754 Y117.4 E5.06609
G1 X118.62 Y117.781 E5.0728
G1 X118.403 Y118.126 E5.07958
G1 X118.122 Y118.407 E5.08619
G1 X117.784 Y118.619 E5.09283
G1 X117.4 Y118.754 E5.0996
G0 F6000 X117.303 Y118.326
G0 X117.241 Y117.549
;TYPE:SKIN
G1 F1200 X116.91 Y117.61 E5.10519
G1 X113.988 Y117.61 E5.15379
G1 X114.538 Y117.307 E5.16423
G1 X114.66 Y117.234 E5.16659
G1 X115.426 Y116.677 E5.18234
G1 X115.536 Y116.587 E5.18471
G1 X116.23 Y115.934 E5.20055
G1 X116.327 Y115.83 E5.20292
G1 X116.931 Y115.096 E5.21873
G1 X117.012 Y114.982 E5.22105
G1 X117.52 Y114.182 E5.23681
G1 X117.61 Y114.003 E5.24014
G1 X117.61 Y116.911 E5.2885
G1 X117.588 Y117.116 E5.29193
G1 X117.462 Y117.372 E5.29668
G1 X117.241 Y117.549 E5.30139
G0 F6000 X114.954 Y117.217
G1 F1200 X115.186 Y117.449 E5.30684
G0 F6000 X115.281 Y116.978
G1 F1200 X115.751 Y117.449 E5.31791
G0 F6000 X116.317 Y117.449
G1 F1200 X115.604 Y116.736 E5.33468
G0 F6000 X115.899 Y116.464
G1 F1200 X116.883 Y117.449 E5.35783
G0 F6000 X117.297 Y117.297
G1 F1200 X116.191 Y116.191 E5.38384
G0 F6000 X116.471 Y115.905
G1 F1200 X117.449 Y116.884 E5.40686
G0 F6000 X117.449 Y116.318
G1 F1200 X116.726 Y115.594 E5.42387
G0 F6000 X116.981 Y115.284
G1 F1200 X117.449 Y115.752 E5.43488
G0 F6000 X117.449 Y115.186
G1 F1200 X117.217 Y114.954 E5.44033
G0 F6000 X117.835 Y113.875
;TYPE:SKIN
G1 F1200 X117.55 Y113.59 E5.44369
G0 F6000 X117.64 Y113.398
G1 F1200 X117.839 Y113.596 E5.44602
G0 F6000 X117.839 Y113.313
G1 F1200 X117.731 Y113.205 E5.44729
G0 F6000 X117.155 Y113.828
G0 X113.598 Y117.557
G1 F1200 X113.862 Y117.822 E5.4504
G0 F6000 X113.596 Y117.839
G1 F1200 X113.401 Y117.644 E5.45269
G0 F6000 X113.313 Y117.839
G1 F1200 X113.199 Y117.724 E5.45404
G0 F6000 X109.822 Y117.821
G0 X106.014 Y117.61
;TYPE:SKIN
G1 F1200 X103.079 Y117.61 E5.50285
G1 X102.892 Y117.588 E5.50598
G1 X102.627 Y117.463 E5.51085
G1 X102.452 Y117.242 E5.51554
G1 X102.39 Y116.909 E5.52117
G1 X102.39 Y114.002 E5.56952
G1 X102.513 Y114.235 E5.5739
G1 X103.014 Y115.023 E5.58943
G1 X103.099 Y115.136 E5.59178
G1 X103.702 Y115.862 E5.60747
G1 X103.8 Y115.964 E5.60983
G1 X104.495 Y116.614 E5.62565
G1 X104.606 Y116.699 E5.62798
G1 X105.37 Y117.253 E5.64367
G1 X105.491 Y117.324 E5.646
G1 X106.014 Y117.61 E5.65592
G0 F6000 X103.306 Y117.449
G1 F1200 X102.549 Y116.691 E5.67373
G0 F6000 X102.549 Y116.126
G1 F1200 X103.872 Y117.449 E5.70485
G0 F6000 X104.438 Y117.449
G1 F1200 X102.549 Y115.56 E5.74927
G0 F6000 X102.549 Y114.994
G1 F1200 X105.003 Y117.449 E5.807
G0 F6000 X106.156 Y117.753
;TYPE:SKIN
G1 F1200 X106.242 Y117.839 E5.80801
G0 F6000 X106.525 Y117.839
G1 F1200 X106.214 Y117.528 E5.81167
G0 F6000 X106.621 Y117.651
G1 F1200 X106.808 Y117.839 E5.81387
G0 F6000 X102.483 Y113.796
G1 F1200 X102.159 Y113.473 E5.81768
G0 F6000 X102.354 Y113.385
G1 F1200 X102.159 Y113.19 E5.81997
G0 F6000 X102.159 Y113.756
G1 F1200 X102.256 Y113.853 E5.82111
G0 F6000 X102.16 Y110.339
G0 X102.39 Y105.993
;TYPE:SKIN
G1 F1200 X102.39 Y103.079 E5.86957
G1 X102.412 Y102.892 E5.8727
G1 X102.537 Y102.627 E5.87757
G1 X102.758 Y102.452 E5.88226
G1 X103.091 Y102.39 E5.8879
G1 X106.012 Y102.39 E5.93647
G1 X105.479 Y102.682 E5.94658
G1 X105.31 Y102.788 E5.9499
G1 X104.509 Y103.374 E5.9664
G1 X103.792 Y104.046 E5.98274
G1 X103.657 Y104.191 E5.98604
