;FLAVOR:Marlin
;TIME:777
;Filament used: 0.618127m
;Layer height: 0.3
;MINX:90.25
;MINY:86.498
;MINZ:0.3
;MAXX:129.75
;MAXY:125.998
;MAXZ:12.6
;Generated with Cura_SteamEngine 4.8.0
M140 S60
M105
M190 S60
M104 S190
M105
M109 S190
M82 ;absolute extrusion mode
; Ender 3 Custom Start G-code
G92 E0 ; Reset Extruder
G28 ; Home all axes
G1 Z2.0 F3000 ; Move Z Axis up little to prevent scratching of Heat Bed
G1 X0.1 Y20 Z0.3 F5000.0 ; Move to start position
G1 X0.1 Y200.0 Z0.3 F1500.0 E15 ; Draw the first line
G1 X0.4 Y200.0 Z0.3 F5000.0 ; Move to side a little
G1 X0.4 Y20 Z0.3 F1500.0 E30 ; Draw the second line
G92 E0 ; Reset Extruder
G1 Z2.0 F3000 ; Move Z Axis up little to prevent scratching of Heat Bed
G1 X5 Y20 Z0.3 F5000.0 ; Move over to prevent blob squish
G92 E0
G92 E0
G1 F3000 E-6
;LAYER_COUNT:42
;LAYER:0
M107
G0 F6000 X94.25 Y91.176 Z0.3
;TYPE:SKIRT
G1 F3000 E0
G1 F1200 X94.514 Y90.905 E0.01888
G1 X94.701 Y90.717 E0.0321
G1 X94.884 Y90.538 E0.04488
G1 X95.582 Y89.912 E0.09165
G1 X96.124 Y89.493 E0.12583
G1 X96.501 Y89.22 E0.14905
G1 X96.768 Y89.033 E0.16532
G1 X96.918 Y88.931 E0.17437
G1 X97.715 Y88.437 E0.22115
G1 X98.281 Y88.14 E0.25304
G1 X98.689 Y87.941 E0.27568
G1 X99.025 Y87.785 E0.29417
G1 X99.222 Y87.697 E0.30493
G1 X100.093 Y87.351 E0.35169
G1 X100.707 Y87.157 E0.38381
G1 X101.109 Y87.043 E0.40466
G1 X101.578 Y86.919 E0.42886
G1 X102.496 Y86.724 E0.47568
G1 X103.204 Y86.627 E0.51133
G1 X103.623 Y86.584 E0.53235
G1 X103.952 Y86.556 E0.54882
G1 X104.187 Y86.539 E0.56058
G1 X104.808 Y86.511 E0.59159
G1 X105.743 Y86.498 E0.63824
G1 X114.293 Y86.498 E1.0648
G1 X115.109 Y86.508 E1.10552
G1 X115.769 Y86.537 E1.13848
G1 X116.19 Y86.568 E1.15954
G1 X116.468 Y86.592 E1.17346
G1 X116.71 Y86.616 E1.18559
G1 X117.638 Y86.748 E1.23235
G1 X118.309 Y86.895 E1.26662
G1 X118.75 Y87.006 E1.28931
G1 X119.037 Y87.082 E1.30412
G1 X119.233 Y87.137 E1.31428
G1 X120.124 Y87.429 E1.36106
G1 X120.746 Y87.684 E1.3946
G1 X121.129 Y87.855 E1.41552
G1 X121.442 Y88 E1.43273
G1 X121.638 Y88.095 E1.4436
G1 X122.464 Y88.54 E1.49041
G1 X122.993 Y88.876 E1.52167
G1 X123.359 Y89.123 E1.5437
G1 X123.636 Y89.316 E1.56055
G1 X123.822 Y89.45 E1.57198
G1 X124.559 Y90.03 E1.61877
G1 X125.052 Y90.48 E1.65207
G1 X125.354 Y90.773 E1.67307
G1 X125.57 Y90.989 E1.68831
G1 X125.726 Y91.149 E1.69946
G1 X126.352 Y91.848 E1.74627
G1 X126.755 Y92.371 E1.77921
G1 X126.995 Y92.702 E1.79961
G1 X127.198 Y92.991 E1.81723
G1 X127.326 Y93.18 E1.82862
G1 X127.818 Y93.978 E1.87539
G1 X128.097 Y94.51 E1.90536
G1 X128.312 Y94.949 E1.92974
G1 X128.472 Y95.291 E1.94858
G1 X128.545 Y95.454 E1.95749
G1 X128.892 Y96.325 E2.00427
G1 X129.087 Y96.942 E2.03655
G1 X129.203 Y97.35 E2.05771
G1 X129.282 Y97.643 E2.07285
G1 X129.336 Y97.855 E2.08377
G1 X129.528 Y98.773 E2.13056
G1 X129.615 Y99.417 E2.16298
G1 X129.664 Y99.882 E2.18631
G1 X129.697 Y100.256 E2.20504
G1 X129.71 Y100.439 E2.21419
G1 X129.737 Y101.043 E2.24435
G1 X129.749 Y101.798 E2.28203
G1 X129.75 Y110.506 E2.71647
G1 X129.74 Y111.344 E2.75828
G1 X129.712 Y111.998 E2.79094
G1 X129.681 Y112.425 E2.8123
G1 X129.657 Y112.71 E2.82657
G1 X129.633 Y112.953 E2.83875
G1 X129.501 Y113.882 E2.88556
G1 X129.353 Y114.557 E2.92004
G1 X129.242 Y114.998 E2.94273
G1 X129.162 Y115.299 E2.95826
G1 X129.107 Y115.494 E2.96837
G1 X128.814 Y116.385 E3.01517
G1 X128.569 Y116.983 E3.04741
G1 X128.398 Y117.367 E3.06838
G1 X128.248 Y117.69 E3.08615
G1 X128.153 Y117.886 E3.09701
G1 X127.708 Y118.712 E3.14382
G1 X127.372 Y119.241 E3.17509
G1 X127.121 Y119.613 E3.19748
G1 X126.92 Y119.9 E3.21496
G1 X126.79 Y120.08 E3.22604
G1 X126.209 Y120.817 E3.27286
G1 X125.767 Y121.3 E3.30552
G1 X125.472 Y121.604 E3.32665
G1 X125.256 Y121.821 E3.34193
G1 X125.098 Y121.975 E3.35294
G1 X124.399 Y122.601 E3.39975
G1 X123.885 Y122.998 E3.43215
G1 X123.567 Y123.229 E3.45176
G1 X123.276 Y123.433 E3.46949
G1 X123.074 Y123.57 E3.48167
G1 X122.276 Y124.063 E3.52847
G1 X121.738 Y124.345 E3.55877
G1 X121.299 Y124.56 E3.58316
G1 X120.917 Y124.738 E3.60418
G1 X120.75 Y124.812 E3.6133
G1 X119.877 Y125.155 E3.66009
G1 X119.306 Y125.335 E3.68996
G1 X118.902 Y125.45 E3.71092
G1 X118.605 Y125.53 E3.72626
G1 X118.393 Y125.584 E3.73718
G1 X117.475 Y125.776 E3.78397
G1 X116.831 Y125.863 E3.81639
G1 X116.366 Y125.912 E3.83972
G1 X115.984 Y125.946 E3.85885
G1 X115.799 Y125.959 E3.8681
G1 X115.197 Y125.985 E3.89816
G1 X114.248 Y125.998 E3.94551
G1 X105.559 Y125.997 E4.37901
G1 X104.891 Y125.988 E4.41234
G1 X104.231 Y125.959 E4.4453
G1 X103.81 Y125.928 E4.46636
G1 X103.532 Y125.904 E4.48028
G1 X103.29 Y125.88 E4.49241
G1 X102.362 Y125.748 E4.53918
G1 X101.691 Y125.601 E4.57345
G1 X101.25 Y125.49 E4.59614
G1 X100.963 Y125.414 E4.61095
G1 X100.767 Y125.359 E4.6211
G1 X99.876 Y125.067 E4.66788
G1 X99.254 Y124.812 E4.70142
G1 X98.871 Y124.641 E4.72235
G1 X98.577 Y124.504 E4.73853
G1 X98.378 Y124.408 E4.74955
G1 X97.551 Y123.965 E4.79636
G1 X97.012 Y123.624 E4.82818
G1 X96.626 Y123.364 E4.8514
G1 X96.329 Y123.157 E4.86946
G1 X96.174 Y123.045 E4.879
G1 X95.437 Y122.464 E4.92582
G1 X94.958 Y122.025 E4.95823
G1 X94.626 Y121.703 E4.98131
G1 X94.388 Y121.466 E4.99807
G1 X94.259 Y121.333 E5.00731
G1 X93.635 Y120.632 E5.05413
G1 X93.252 Y120.134 E5.08547
G1 X92.977 Y119.755 E5.10884
G1 X92.756 Y119.439 E5.12807
G1 X92.655 Y119.289 E5.1371
G1 X92.164 Y118.489 E5.18393
G1 X91.892 Y117.967 E5.21329
G1 X91.693 Y117.559 E5.23594
G1 X91.537 Y117.223 E5.25442
G1 X91.449 Y117.026 E5.26519
G1 X91.103 Y116.155 E5.31194
G1 X90.909 Y115.541 E5.34407
G1 X90.795 Y115.139 E5.36491
G1 X90.671 Y114.67 E5.38912
G1 X90.476 Y113.752 E5.43594
G1 X90.379 Y113.044 E5.47159
G1 X90.336 Y112.625 E5.4926
G1 X90.308 Y112.302 E5.50878
G1 X90.291 Y112.069 E5.52043
G1 X90.263 Y111.435 E5.5521
G1 X90.25 Y110.475 E5.6
G1 X90.251 Y101.792 E6.03319
G1 X90.261 Y101.118 E6.06682
G1 X90.289 Y100.488 E6.09828
G1 X90.319 Y100.073 E6.11904
G1 X90.346 Y99.758 E6.13481
G1 X90.371 Y99.511 E6.1472
G1 X90.505 Y98.583 E6.19398
G1 X90.649 Y97.928 E6.22744
G1 X90.759 Y97.492 E6.24987
G1 X90.838 Y97.197 E6.26511
G1 X90.893 Y97.002 E6.27522
G1 X91.186 Y96.111 E6.32201
G1 X91.431 Y95.513 E6.35425
G1 X91.602 Y95.129 E6.37522
G1 X91.752 Y94.806 E6.39299
G1 X91.847 Y94.61 E6.40386
G1 X92.292 Y93.784 E6.45067
G1 X92.634 Y93.247 E6.48243
G1 X92.895 Y92.861 E6.50567
G1 X93.07 Y92.609 E6.52098
G1 X93.192 Y92.439 E6.53142
G1 X93.771 Y91.701 E6.57822
G1 X94.25 Y91.176 E6.61367
G0 F6000 X94.536 Y91.455
G1 F1200 X94.8 Y91.184 E6.63255
G1 X95.164 Y90.824 E6.65809
G1 X95.849 Y90.21 E6.70399
G1 X96.359 Y89.817 E6.73611
G1 X96.736 Y89.544 E6.75933
G1 X96.993 Y89.364 E6.77498
G1 X97.143 Y89.262 E6.78403
G1 X97.926 Y88.777 E6.82998
G1 X98.456 Y88.5 E6.85982
G1 X98.864 Y88.301 E6.88247
G1 X99.188 Y88.15 E6.9003
G1 X99.385 Y88.062 E6.91107
G1 X100.241 Y87.723 E6.957
G1 X100.816 Y87.542 E6.98707
G1 X101.218 Y87.428 E7.00792
G1 X101.461 Y87.362 E7.02048
G1 X101.678 Y87.306 E7.03166
G1 X102.579 Y87.115 E7.07761
G1 X103.245 Y87.025 E7.11114
G1 X103.664 Y86.982 E7.13216
G1 X103.981 Y86.955 E7.14803
G1 X104.216 Y86.938 E7.15978
G1 X104.814 Y86.911 E7.18965
G1 X105.743 Y86.898 E7.236
G1 X114.293 Y86.898 E7.66256
G1 X115.104 Y86.908 E7.70303
G1 X115.739 Y86.936 E7.73474
G1 X116.16 Y86.967 E7.7558
G1 X116.428 Y86.99 E7.76922
G1 X116.67 Y87.014 E7.78135
G1 X117.581 Y87.144 E7.82726
G1 X118.211 Y87.283 E7.85945
G1 X118.652 Y87.394 E7.88213
G1 X118.929 Y87.467 E7.89643
G1 X119.125 Y87.522 E7.90658
G1 X120 Y87.809 E7.95252
G1 X120.582 Y88.049 E7.98393
G1 X120.965 Y88.22 E8.00486
G1 X121.267 Y88.36 E8.02147
G1 X121.463 Y88.455 E8.03233
G1 X122.274 Y88.893 E8.07832
G1 X122.77 Y89.208 E8.10763
G1 X123.136 Y89.455 E8.12966
G1 X123.402 Y89.64 E8.14582
G1 X123.588 Y89.774 E8.15726
G1 X124.311 Y90.345 E8.20322
G1 X124.773 Y90.767 E8.23444
G1 X125.075 Y91.06 E8.25543
G1 X125.284 Y91.268 E8.27015
G1 X125.44 Y91.428 E8.28129
G1 X126.053 Y92.115 E8.32723
G1 X126.432 Y92.606 E8.35817
G1 X126.672 Y92.937 E8.37857
G1 X126.867 Y93.215 E8.39551
G1 X126.995 Y93.404 E8.4069
G1 X127.477 Y94.188 E8.45282
G1 X127.738 Y94.686 E8.48087
G1 X127.953 Y95.125 E8.50525
G1 X128.107 Y95.454 E8.52338
G1 X128.18 Y95.617 E8.53229
G1 X128.52 Y96.473 E8.57824
G1 X128.702 Y97.051 E8.60847
G1 X128.818 Y97.459 E8.62963
G1 X128.894 Y97.742 E8.64425
G1 X128.948 Y97.954 E8.65517
G1 X129.136 Y98.855 E8.70109
G1 X129.218 Y99.459 E8.7315
G1 X129.267 Y99.924 E8.75482
G1 X129.298 Y100.284 E8.77285
G1 X129.311 Y100.467 E8.782
G1 X129.337 Y101.05 E8.81112
G1 X129.35 Y101.973 E8.85717
G1 X129.349 Y110.643 E9.28972
G1 X129.34 Y111.339 E9.32445
G1 X129.313 Y111.97 E9.35596
G1 X129.282 Y112.397 E9.37731
G1 X129.259 Y112.671 E9.39103
G1 X129.235 Y112.914 E9.40322
G1 X129.104 Y113.825 E9.44913
G1 X128.965 Y114.459 E9.48151
G1 X128.854 Y114.9 E9.5042
G1 X128.777 Y115.19 E9.51917
G1 X128.722 Y115.385 E9.52928
G1 X128.434 Y116.26 E9.57524
G1 X128.203 Y116.82 E9.60546
G1 X128.032 Y117.204 E9.62643
G1 X127.888 Y117.515 E9.64353
G1 X127.793 Y117.711 E9.6544
G1 X127.355 Y118.522 E9.70038
G1 X127.041 Y119.017 E9.72963
G1 X126.79 Y119.389 E9.75201
G1 X126.596 Y119.666 E9.76889
G1 X126.466 Y119.846 E9.77996
G1 X125.895 Y120.568 E9.82589
G1 X125.48 Y121.022 E9.85658
G1 X125.185 Y121.326 E9.87771
G1 X124.977 Y121.535 E9.89242
G1 X124.819 Y121.689 E9.90343
G1 X124.132 Y122.302 E9.94936
G1 X123.65 Y122.674 E9.97974
G1 X123.332 Y122.905 E9.99935
G1 X123.052 Y123.102 E10.01643
G1 X122.85 Y123.239 E10.02861
G1 X122.066 Y123.722 E10.07455
G1 X121.562 Y123.986 E10.10293
G1 X121.123 Y124.201 E10.12732
G1 X120.755 Y124.372 E10.14756
G1 X120.588 Y124.446 E10.15668
G1 X119.731 Y124.782 E10.2026
G1 X119.196 Y124.95 E10.23058
G1 X118.792 Y125.065 E10.25153
G1 X118.506 Y125.142 E10.26631
G1 X118.294 Y125.196 E10.27723
G1 X117.393 Y125.384 E10.32314
G1 X116.789 Y125.466 E10.35355
G1 X116.324 Y125.515 E10.37688
G1 X115.956 Y125.547 E10.39531
G1 X115.771 Y125.56 E10.40456
G1 X115.191 Y125.585 E10.43353
G1 X114.248 Y125.598 E10.48058
G1 X105.564 Y125.597 E10.91382
G1 X104.896 Y125.588 E10.94715
G1 X104.261 Y125.56 E10.97886
G1 X103.84 Y125.529 E10.99993
G1 X103.572 Y125.506 E11.01334
G1 X103.33 Y125.482 E11.02548
G1 X102.419 Y125.352 E11.07139
G1 X101.789 Y125.213 E11.10357
G1 X101.348 Y125.102 E11.12626
G1 X101.071 Y125.029 E11.14055
G1 X100.875 Y124.974 E11.15071
G1 X100 Y124.687 E11.19665
G1 X99.418 Y124.447 E11.22806
G1 X99.035 Y124.276 E11.24899
G1 X98.75 Y124.144 E11.26466
G1 X98.551 Y124.048 E11.27568
G1 X97.74 Y123.612 E11.32162
G1 X97.235 Y123.293 E11.35142
G1 X96.849 Y123.033 E11.37464
G1 X96.563 Y122.833 E11.39205
G1 X96.408 Y122.721 E11.40159
G1 X95.686 Y122.15 E11.44751
G1 X95.236 Y121.738 E11.47795
G1 X94.904 Y121.416 E11.50102
G1 X94.675 Y121.187 E11.51718
G1 X94.546 Y121.054 E11.52643
G1 X93.934 Y120.366 E11.57236
G1 X93.576 Y119.899 E11.60172
G1 X93.301 Y119.52 E11.62508
G1 X93.087 Y119.215 E11.64367
G1 X92.986 Y119.065 E11.65269
G1 X92.506 Y118.28 E11.6986
G1 X92.252 Y117.792 E11.72605
G1 X92.053 Y117.384 E11.74869
G1 X91.902 Y117.06 E11.76653
G1 X91.814 Y116.863 E11.77729
G1 X91.475 Y116.007 E11.82322
G1 X91.294 Y115.432 E11.8533
G1 X91.18 Y115.03 E11.87415
G1 X91.114 Y114.787 E11.88671
G1 X91.058 Y114.57 E11.89789
G1 X90.867 Y113.669 E11.94384
G1 X90.777 Y113.003 E11.97737
G1 X90.734 Y112.584 E11.99838
G1 X90.707 Y112.273 E12.01396
G1 X90.69 Y112.04 E12.02561
G1 X90.663 Y111.429 E12.05612
G1 X90.65 Y110.475 E12.10372
G1 X90.651 Y101.798 E12.53662
G1 X90.661 Y101.124 E12.57025
G1 X90.688 Y100.517 E12.60056
G1 X90.718 Y100.102 E12.62132
G1 X90.744 Y99.799 E12.63649
G1 X90.769 Y99.552 E12.64888
G1 X90.901 Y98.64 E12.69485
G1 X91.037 Y98.026 E12.72623
G1 X91.147 Y97.59 E12.74866
G1 X91.223 Y97.306 E12.76333
G1 X91.278 Y97.111 E12.77344
G1 X91.566 Y96.236 E12.8194
G1 X91.797 Y95.676 E12.84962
G1 X91.968 Y95.292 E12.87059
G1 X92.112 Y94.981 E12.88769
G1 X92.207 Y94.785 E12.89855
G1 X92.645 Y93.974 E12.94454
G1 X92.965 Y93.471 E12.97428
G1 X93.226 Y93.085 E12.99753
G1 X93.395 Y92.842 E13.0123
G1 X93.517 Y92.672 E13.02274
G1 X94.086 Y91.948 E13.06868
G1 X94.536 Y91.455 E13.10198
G0 F6000 X94.823 Y91.734
G1 F1200 X95.087 Y91.463 E13.12085
G1 X95.444 Y91.11 E13.1459
G1 X96.117 Y90.508 E13.19095
G1 X96.594 Y90.141 E13.22098
G1 X96.971 Y89.868 E13.2442
G1 X97.217 Y89.694 E13.25923
G1 X97.367 Y89.592 E13.26828
G1 X98.136 Y89.118 E13.31335
G1 X98.632 Y88.859 E13.34126
G1 X99.04 Y88.66 E13.36391
G1 X99.351 Y88.515 E13.38103
G1 X99.548 Y88.427 E13.3918
G1 X100.388 Y88.095 E13.43686
G1 X100.925 Y87.927 E13.46493
G1 X101.327 Y87.813 E13.48578
G1 X101.778 Y87.694 E13.50905
G1 X102.662 Y87.507 E13.55413
G1 X103.286 Y87.423 E13.58554
G1 X103.705 Y87.38 E13.60655
G1 X104.01 Y87.354 E13.62182
G1 X104.245 Y87.337 E13.63358
G1 X104.82 Y87.311 E13.66229
G1 X105.743 Y87.298 E13.70835
G1 X114.293 Y87.298 E14.13491
G1 X115.098 Y87.308 E14.17507
G1 X115.71 Y87.335 E14.20564
G1 X116.131 Y87.366 E14.2267
G1 X116.389 Y87.388 E14.23961
G1 X116.631 Y87.412 E14.25175
G1 X117.525 Y87.541 E14.29681
G1 X118.114 Y87.671 E14.3269
G1 X118.555 Y87.782 E14.34959
G1 X118.821 Y87.852 E14.36331
G1 X119.017 Y87.907 E14.37347
G1 X119.875 Y88.19 E14.41854
G1 X120.419 Y88.414 E14.4479
G1 X120.802 Y88.585 E14.46882
G1 X121.093 Y88.72 E14.48483
G1 X121.289 Y88.815 E14.49569
G1 X122.083 Y89.245 E14.54074
G1 X122.546 Y89.539 E14.5681
G1 X122.912 Y89.786 E14.59013
G1 X123.168 Y89.965 E14.60572
G1 X123.354 Y90.099 E14.61715
G1 X124.063 Y90.659 E14.66223
G1 X124.495 Y91.054 E14.69143
G1 X124.797 Y91.347 E14.71243
G1 X124.997 Y91.547 E14.72654
G1 X125.153 Y91.707 E14.73769
G1 X125.754 Y92.381 E14.78274
G1 X126.108 Y92.841 E14.8117
G1 X126.348 Y93.172 E14.83209
G1 X126.535 Y93.439 E14.84836
G1 X126.663 Y93.628 E14.85975
G1 X127.136 Y94.398 E14.90483
G1 X127.378 Y94.862 E14.93094
G1 X127.593 Y95.301 E14.95533
G1 X127.742 Y95.618 E14.9728
G1 X127.815 Y95.781 E14.98171
G1 X128.147 Y96.621 E15.02677
G1 X128.317 Y97.161 E15.05502
G1 X128.433 Y97.569 E15.07618
G1 X128.506 Y97.84 E15.09018
G1 X128.56 Y98.052 E15.1011
G1 X128.744 Y98.936 E15.14614
G1 X128.82 Y99.501 E15.17459
G1 X128.869 Y99.966 E15.19791
G1 X128.899 Y100.312 E15.21524
G1 X128.912 Y100.495 E15.22439
G1 X128.937 Y101.056 E15.25241
G1 X128.95 Y101.973 E15.29816
G1 X128.949 Y110.638 E15.73046
G1 X128.94 Y111.334 E15.76519
G1 X128.914 Y111.941 E15.7955
G1 X128.883 Y112.368 E15.81686
G1 X128.861 Y112.632 E15.83008
G1 X128.837 Y112.875 E15.84226
G1 X128.708 Y113.768 E15.88727
G1 X128.577 Y114.362 E15.91762
G1 X128.466 Y114.803 E15.94031
G1 X128.392 Y115.082 E15.95471
G1 X128.337 Y115.277 E15.96482
G1 X128.054 Y116.134 E16.00984
G1 X127.838 Y116.657 E16.03807
G1 X127.667 Y117.041 E16.05904
G1 X127.528 Y117.341 E16.07554
G1 X127.433 Y117.537 E16.08641
G1 X127.003 Y118.331 E16.13146
G1 X126.709 Y118.793 E16.15878
G1 X126.458 Y119.165 E16.18116
G1 X126.272 Y119.432 E16.1974
G1 X126.142 Y119.612 E16.20848
G1 X125.581 Y120.32 E16.25354
G1 X125.193 Y120.743 E16.28218
G1 X124.898 Y121.047 E16.30331
G1 X124.697 Y121.248 E16.31749
G1 X124.539 Y121.402 E16.3285
G1 X123.865 Y122.003 E16.37356
G1 X123.415 Y122.35 E16.40191
G1 X123.097 Y122.581 E16.42151
G1 X122.827 Y122.771 E16.43799
G1 X122.625 Y122.908 E16.45016
G1 X121.856 Y123.381 E16.4952
G1 X121.386 Y123.626 E16.52165
G1 X120.947 Y123.841 E16.54604
G1 X120.593 Y124.006 E16.56552
G1 X120.426 Y124.08 E16.57463
G1 X119.585 Y124.409 E16.61969
G1 X119.087 Y124.565 E16.64572
G1 X118.683 Y124.68 E16.66668
G1 X118.408 Y124.754 E16.68089
G1 X118.196 Y124.808 E16.6918
G1 X117.312 Y124.992 E16.73685
G1 X116.747 Y125.068 E16.76529
G1 X116.282 Y125.117 E16.78862
G1 X115.928 Y125.148 E16.80635
G1 X115.743 Y125.161 E16.8156
G1 X115.185 Y125.185 E16.84346
G1 X114.248 Y125.198 E16.89022
G1 X105.57 Y125.197 E17.32316
G1 X104.902 Y125.188 E17.35649
G1 X104.29 Y125.161 E17.38706
G1 X103.869 Y125.13 E17.40812
G1 X103.611 Y125.108 E17.42103
G1 X103.369 Y125.084 E17.43317
G1 X102.475 Y124.955 E17.47823
G1 X101.886 Y124.825 E17.50832
G1 X101.445 Y124.714 E17.53101
G1 X101.179 Y124.644 E17.54473
G1 X100.983 Y124.589 E17.55489
G1 X100.125 Y124.306 E17.59996
G1 X99.581 Y124.082 E17.62932
